Gruvbox-Plus-Dark/actions/16/document-edit-encrypt.svg

<svg xmlns="http://www.w3.org/2000/svg" width="16" height="16" viewBox="0 0 16 16">
 <defs>
  <style id="current-color-scheme" type="text/css">
   .ColorScheme-Text { color:#ebdbb2; } .ColorScheme-Highlight { color:#458588; }
  </style>
 </defs>
 <path style="fill:currentColor" class="ColorScheme-Text" d="M 3 1.9902344 C 3 1.9902344 2 1.9902344 2 2.9902344 L 2 9 L 4 9 L 4 3.9941406 L 12 3.9941406 L 12 8.9804688 L 14 8.9804688 L 14 2.9902344 C 14 1.9902344 13 1.9902344 13 1.9902344 L 3 1.9902344 z M 4 10 L 4 12 L 6 12 L 6 10 L 4 10 z M 10 10 L 10 12 L 12 12 L 12 10 L 10 10 z M 2 13 L 2 15 L 4 15 L 4 13 L 2 13 z M 7 13 L 7 15 L 9 15 L 9 13 L 7 13 z M 12 13 L 12 15 L 14 15 L 14 13 L 12 13 z"/>
</svg>

<svg width="16" height="16" version="1.1" viewBox="0 0 16 16" xmlns="http://www.w3.org/2000/svg">
  <defs>
    <style type="text/css">.ColorScheme-Text { color:#ebdbb2; } .ColorScheme-Highlight { color:#458588; }</style>
  </defs>
  <path class="ColorScheme-Text" d="m3 1s-1 0-1 1v7.02h2v-6.016l5 0.00586v3h3v2.99h2v-3.99l-3.749-4zm1 9v2h2v-2zm6 0v2h2v-2zm-8 3v2h2v-2zm5 0v2h2v-2zm5 0v2h2v-2z" fill="currentColor"/>
</svg>
